X: 15418
T: Glen Aln, The
R: hornpipe
M: 4/4
K: Fmajor
|:(3CDE|F>DC>D F>Ac>A|f2 d>f c>AF>E|D>FB3/2[D/F/] C>FA>c|G>fe>d (3cdc (3BAG|
F>DC>D F>Ac>A|f>e (3def c>AF>E|D>dB>D C>cA>F|1 (3EDC (3BAG F2:|2 (3EDC (3BAG F3/2||
|:G/ A2|c>AF>A c>Af>c|(3def c>f A>cF>A|B>Gg>G B>Gg>f|(3efg (3fed|3cdc A>B|
c>AF>A c>Af>c|(3def c>f A>cF>c|D>dB>D C>cA>F|1 (3EDC (3BAG F3/2:|2 (3EDC (3BAG F2||

